material/.icons/material/file-powerpoint.svg

<svg xmlns="http://www.w3.org/2000/svg" viewBox="0 0 24 24"><path d="M12.6 12.3h-2v3.2h2.1c.6 0 .9-.2 1.2-.5.3-.3.4-.6.4-1.1 0-.5-.1-.8-.4-1.1-.3-.3-.7-.5-1.3-.5M14 2H6a2 2 0 00-2 2v16a2 2 0 002 2h12a2 2 0 002-2V8l-6-6m1.2 14c-.6.5-1.1.7-2.4.7h-2.2V20H9v-9h3.8c1.3 0 1.9.3 2.4.8.6.6.8 1.2.8 2.1 0 .9-.2 1.6-.8 2.1M13 9V3.5L18.5 9H13z"/></svg>

<?xml version="1.0" encoding="UTF-8"?><!DOCTYPE svg PUBLIC "-//W3C//DTD SVG 1.1//EN" "http://www.w3.org/Graphics/SVG/1.1/DTD/svg11.dtd"><svg xmlns="http://www.w3.org/2000/svg" xmlns:xlink="http://www.w3.org/1999/xlink" version="1.1" id="mdi-file-powerpoint" width="24" height="24" viewBox="0 0 24 24"><path d="M12.6,12.3H10.6V15.5H12.7C13.3,15.5 13.6,15.3 13.9,15C14.2,14.7 14.3,14.4 14.3,13.9C14.3,13.4 14.2,13.1 13.9,12.8C13.6,12.5 13.2,12.3 12.6,12.3M14,2H6A2,2 0 0,0 4,4V20A2,2 0 0,0 6,22H18A2,2 0 0,0 20,20V8L14,2M15.2,16C14.6,16.5 14.1,16.7 12.8,16.7H10.6V20H9V11H12.8C14.1,11 14.7,11.3 15.2,11.8C15.8,12.4 16,13 16,13.9C16,14.8 15.8,15.5 15.2,16M13,9V3.5L18.5,9H13Z" /></svg>
